static/logos/pry-wordmark-color.svg

<svg width="79" height="32" viewBox="0 0 79 32" fill="none" xmlns="http://www.w3.org/2000/svg">
<g clip-path="url(#clip0_1_1433)">
<path d="M6.7134 13.512C8.04385 13.5133 9.34451 13.1181 10.4494 12.377C11.5566 11.634 12.4189 10.5796 12.9274 9.347C13.4364 8.1127 13.5703 6.75572 13.3122 5.44576C13.0541 4.13579 12.4156 2.93098 11.4764 1.982C10.5401 1.03617 9.34294 0.391223 8.03802 0.129706C6.73311 -0.131812 5.37984 0.00199491 4.1514 0.514001C2.92122 1.02616 1.87082 1.8921 1.1334 3.002C0.269482 4.30211 -0.119513 5.86044 0.0320577 7.41403C0.183628 8.96763 0.866485 10.4214 1.9654 11.53C2.58712 12.1567 3.32654 12.6544 4.14117 12.9946C4.95581 13.3347 5.82961 13.5106 6.7124 13.512H6.7134Z" fill="#F4C222"/>
<path d="M14.8984 23.076V14.984L22.9484 23.076H14.8984Z" fill="#5C5CE5"/>
<path d="M22.946 6.898L6.854 23.076H0L22.946 0.00799561V6.898Z" fill="#E54C4C"/>
<path fill-rule="evenodd" clip-rule="evenodd" d="M38.0509 0.00799561H40.9859C43.0233 0.0276705 44.971 0.849346 46.4069 2.295C47.8476 3.74501 48.6641 5.701 48.6819 7.745C48.6765 9.77377 47.8716 11.7186 46.4419 13.158C45.0166 14.5933 43.0796 15.4037 41.0569 15.411H36.7919V23.076H32.1719V0.00799561H36.7919V10.838H40.9859C41.8019 10.838 42.5849 10.512 43.1619 9.932C43.7397 9.35079 44.064 8.56454 44.064 7.745C44.064 6.92545 43.7397 6.1392 43.1619 5.558C42.8768 5.27103 42.5378 5.04325 42.1643 4.88776C41.7909 4.73228 41.3904 4.65215 40.9859 4.652H36.7919L38.0509 0.00799561ZM49.7989 23.076H54.4189V6.622H49.7989V23.076ZM64.9079 6.622L69.5179 23.061L74.1379 6.621H78.6859L71.6039 32H67.0089L69.5189 23.076H64.9069L60.2869 6.622L59.0129 11.186H54.4169L55.7389 6.622H64.9069H64.9079Z" fill="#001133"/>
</g>
<defs>
<clipPath id="clip0_1_1433">
<rect width="79" height="32" fill="white"/>
</clipPath>
</defs>
</svg>

<svg xmlns="http://www.w3.org/2000/svg" width="158" height="64" fill="none" viewBox="0 0 79 32"><g clip-path="url(#a)"><path fill="#F4C222" d="M6.713 13.512a6.695 6.695 0 0 0 3.736-1.135 6.748 6.748 0 0 0 2.478-3.03 6.79 6.79 0 0 0-1.45-7.365A6.687 6.687 0 0 0 4.15.514a6.728 6.728 0 0 0-3.018 2.488 6.782 6.782 0 0 0 .832 8.528 6.704 6.704 0 0 0 4.747 1.982h.001Z"/><path fill="#5C5CE5" d="M14.898 23.076v-8.092l8.05 8.092h-8.05Z"/><path fill="#E54C4C" d="M22.946 6.898 6.854 23.076H0L22.946.008v6.89Z"/><path fill="#013" fill-rule="evenodd" d="M38.05.008h2.936a7.746 7.746 0 0 1 5.42 2.287 7.83 7.83 0 0 1 2.276 5.45 7.71 7.71 0 0 1-2.24 5.413 7.628 7.628 0 0 1-5.385 2.253h-4.265v7.665h-4.62V.008h4.62v10.83h4.194a3.07 3.07 0 0 0 2.176-.906 3.102 3.102 0 0 0-.998-5.044 3.069 3.069 0 0 0-1.178-.236h-4.194L38.05.008ZM49.8 23.076h4.62V6.622h-4.62v16.454ZM64.908 6.622l4.61 16.439 4.62-16.44h4.548L71.604 32h-4.595l2.51-8.924h-4.612l-4.62-16.454-1.274 4.564h-4.596l1.322-4.564h9.168Z" clip-rule="evenodd"/></g><defs><clipPath id="a"><path fill="#fff" d="M0 0h79v32H0z"/></clipPath></defs></svg>
